X: 321
T:Crossing the Shannon
T:Unknown Reel 73A
M:C|
L:1/8
R:Reel
Z:Kevin Gow
K:D
A~d3 AdFd|A~d3 fdBd|A~d3 AdFd|AGFD EFGB|!
A~d3 AdFd|A~d3 fdBd|Adfa gefa|gece d2FG:||!
A~d3 fage|fage edBd|A~d3 AdFd|AGFD EFGB|!
A~d3 fage|fage edBd|Adfa gefa|gece d2fg:||
<end>
<start>
